X: 84
T:Rigadoon,A. JaW.084
M:C|
Q:180
S:James Winder Ms, Lancashire, 1835-41
R:Rigadoon
O:England
A:Wyresdale,Lancashire
H:1/8
Z:vmp.Chris Partington, Aug 2004
K:Bb
GABc d2G2|d2g2^f2d2|g2a2 b2ag|a2^f2 g2G2:||:def2 f2b2|!
f2d2 B4|ABc2 c2f2|(ed)(cB) A2d2|(cB)(AG)|A2^F2|G2-G2:|]
